X: 21212
T: Katy Is Waiting
R: jig
M: 6/8
K: Edorian
|:A|BEE cEE|BAF BAF|~D3 FED|AdB AGF|
BEE cEE|BEE BAF|ABc dAF|FED E2:|
|:B|~e3 efg|fed ecA|A2d dcd|ABc dAF|
E2e efg|fed ecA|dcd BAF|BAF E2:|

